src/assets/icons/widget-preview/light/ring-energy-indicator.svg

<svg width="324" height="117" viewBox="0 0 324 117" fill="none" xmlns="http://www.w3.org/2000/svg">
<path opacity="0.2" d="M160.25 8.67002C154.761 8.67677 149.346 9.93021 144.412 12.3357C139.478 14.7412 135.156 18.236 131.77 22.5562C128.384 26.8764 126.024 31.9092 124.868 37.2748C123.712 42.6404 123.789 48.1986 125.095 53.5299C126.4 58.8611 128.9 63.8262 132.404 68.0503C135.909 72.2745 140.328 75.6474 145.326 77.9144C150.325 80.1814 155.774 81.2834 161.26 81.1371C166.747 80.9908 172.129 79.6002 177 77.07L175.93 76.68C168.068 80.5594 159.047 81.3886 150.609 79.0074C142.171 76.6263 134.915 71.2037 130.24 63.7864C125.566 56.3691 123.805 47.483 125.297 38.8436C126.79 30.2042 131.43 22.424 138.322 17.005C145.214 11.5859 153.869 8.91225 162.617 9.50007C171.365 10.0879 179.584 13.8955 185.69 20.1879C191.795 26.4804 195.352 34.8114 195.676 43.5728C195.999 52.3342 193.065 60.9048 187.44 67.63C187.52 68.05 187.62 68.71 187.62 68.71C193.37 62.1111 196.535 53.6527 196.53 44.9C196.531 42.3005 196.25 39.7086 195.69 37.17C195.69 37.17 196.92 35.63 197.96 34.29C195.252 24.5679 188.907 16.2605 180.24 11.09L176.57 12.54C171.511 9.98307 165.919 8.65709 160.25 8.67002Z" fill="#8C99B2"/>
<path opacity="0.25" d="M160.84 73.7H160.63C156.466 73.6898 152.354 72.7831 148.572 71.0417C144.789 69.3002 141.427 66.7647 138.712 63.6076C135.997 60.4505 133.994 56.7459 132.839 52.7456C131.684 48.7453 131.404 44.5431 132.018 40.4249C132.632 36.3066 134.125 32.3689 136.396 28.8793C138.668 25.3898 141.664 22.4303 145.182 20.2021C148.699 17.9738 152.655 16.5292 156.78 15.9663C160.906 15.4034 165.104 15.7355 169.09 16.94" stroke="#F7931E" stroke-width="2" stroke-miterlimit="10" stroke-linecap="round"/>
<path d="M160.25 15.6801H160.46C164.624 15.6902 168.736 16.5969 172.518 18.3384C176.301 20.0799 179.663 22.6154 182.378 25.7725C185.093 28.9295 187.096 32.6342 188.251 36.6345C189.406 40.6348 189.686 44.8369 189.072 48.9552C188.458 53.0734 186.965 57.0112 184.694 60.5007C182.422 63.9903 179.426 66.9498 175.908 69.178C172.391 71.4062 168.435 72.8509 164.31 73.4137C160.184 73.9766 155.986 73.6445 152 72.4401" stroke="#8C99B2" stroke-width="2" stroke-miterlimit="10"/>
<path opacity="0.2" d="M41.33 38.12C35.8378 38.1146 30.4163 39.3577 25.475 41.7551C20.5338 44.1526 16.202 47.6417 12.8072 51.959C9.4123 56.2763 7.04309 61.3087 5.87858 66.676C4.71407 72.0433 4.78471 77.605 6.08516 82.941C7.38561 88.277 9.88185 93.2476 13.3853 97.4773C16.8887 101.707 21.3076 105.085 26.3082 107.356C31.3088 109.627 36.7601 110.732 42.2504 110.587C47.7406 110.443 53.1262 109.052 58 106.52L57 106.13C49.1277 109.992 40.1035 110.801 31.67 108.399C23.2365 105.998 15.9918 100.557 11.335 93.1271C6.67809 85.6972 4.9393 76.8052 6.45436 68.1684C7.96941 59.5315 12.6308 51.7623 19.5386 46.361C26.4463 40.9596 35.1103 38.3093 43.8576 38.9217C52.6049 39.5341 60.8151 43.3659 66.9028 49.677C72.9905 55.9882 76.5239 64.3311 76.8207 73.0948C77.1175 81.8585 74.1567 90.4214 68.51 97.13L68.69 98.21C72.4039 93.9477 75.0682 88.875 76.4695 83.3981C77.8709 77.9212 77.9703 72.1923 76.76 66.67L79 63.74C76.2888 54.0167 69.9402 45.7094 61.27 40.54L57.59 42C52.5495 39.4488 46.9794 38.1196 41.33 38.12Z" fill="#8C99B2"/>
<path opacity="0.25" d="M41.92 103.15H41.7C37.5367 103.138 33.4247 102.231 29.6436 100.488C25.8625 98.7456 22.5008 96.2094 19.7873 93.0519C17.0737 89.8945 15.0718 86.1897 13.9176 82.1896C12.7634 78.1895 12.4841 73.9877 13.0985 69.87C13.713 65.7523 15.2069 61.8152 17.4786 58.3263C19.7503 54.8374 22.7466 51.8785 26.2638 49.6508C29.781 47.4231 33.7366 45.9789 37.8617 45.4162C41.9868 44.8535 46.1847 45.1857 50.17 46.39" stroke="#A2E2FF" stroke-width="2" stroke-miterlimit="10" stroke-linecap="round"/>
<path d="M41.32 45.13H41.54C45.7033 45.1416 49.8153 46.0495 53.5964 47.792C57.3775 49.5345 60.7392 52.0706 63.4527 55.2281C66.1663 58.3856 68.1682 62.0903 69.3224 66.0904C70.4766 70.0906 70.7559 74.2923 70.1415 78.41C69.527 82.5277 68.0331 86.4649 65.7614 89.9538C63.4897 93.4427 60.4934 96.4015 56.9762 98.6292C53.459 100.857 49.5034 102.301 45.3783 102.864C41.2532 103.426 37.0553 103.094 33.07 101.89" stroke="#A2E2FF" stroke-width="2" stroke-miterlimit="10"/>
<path d="M40 83.6101L38.51 82.8601C38.26 82.7401 38.01 82.6201 37.76 82.4801C34.98 80.8501 33.96 78.1001 34.9 74.7401C35.3185 73.4433 35.9034 72.2063 36.64 71.0601L36.7 70.9401C37.8048 69.2063 38.6978 67.3464 39.36 65.4001C39.44 65.1201 39.51 64.8301 39.59 64.5301L39.92 63.3101L40.64 63.7701C40.7442 63.825 40.8416 63.8922 40.93 63.9701L41.46 64.5001C43.1891 66.1114 44.7657 67.8789 46.17 69.7801C47.4442 71.495 48.2537 73.5102 48.52 75.6301C48.84 78.7001 47.94 80.9101 45.75 82.3901C45.3613 82.6393 44.9494 82.8503 44.52 83.0201L44.01 83.2401L43.43 83.5201L42.99 82.5201L43.22 82.2401C43.3316 82.0899 43.4518 81.9463 43.58 81.8101C43.815 81.5508 44.029 81.2732 44.22 80.9801C44.9097 79.9245 45.277 78.6909 45.277 77.4301C45.277 76.1692 44.9097 74.9356 44.22 73.8801C43.8828 73.2728 43.4731 72.7087 43 72.2001C42.8916 74.0158 42.3645 75.7819 41.46 77.3601L40.65 78.8401L40.31 77.1901C40.2047 76.5681 39.9843 75.9712 39.66 75.4301C39.31 76.2601 38.98 77.0901 38.66 77.9201C38.3728 78.5468 38.2898 79.2478 38.4225 79.9243C38.5553 80.6007 38.8972 81.2184 39.4 81.6901C39.5819 81.8622 39.7074 82.0853 39.76 82.3301L40 83.6101ZM41.57 69.2901L42.73 70.2901C43.7513 71.128 44.612 72.1445 45.27 73.2901C45.9983 74.4232 46.4183 75.7268 46.4885 77.0719C46.5586 78.4171 46.2765 79.7573 45.67 80.9601C47.01 79.7701 47.52 78.1201 47.28 75.8301C47.0336 73.9168 46.3002 72.0988 45.15 70.5501C43.7976 68.7532 42.2883 67.08 40.64 65.5501C40.64 65.6601 40.58 65.7701 40.54 65.8801C39.8573 67.9208 38.9306 69.8716 37.78 71.6901L37.71 71.8101C37.0275 72.8613 36.4862 73.9977 36.1 75.1901C35.755 76.1253 35.6818 77.139 35.8889 78.1141C36.0959 79.0892 36.5747 79.9857 37.27 80.7001C36.9786 79.6711 37.0492 78.5732 37.47 77.5901C37.82 76.7001 38.18 75.8201 38.54 74.9301L38.93 73.9901L39.58 73.7401L39.91 73.9701C40.3621 74.3603 40.7325 74.8361 41 75.3701C41.5915 73.9201 41.8281 72.3499 41.69 70.7901L41.57 69.2901Z" fill="#8C99B2"/>
<path opacity="0.2" d="M279.17 38.12C273.679 38.1192 268.26 39.3661 263.321 41.7666C258.383 44.167 254.055 47.6583 250.663 51.9767C247.272 56.2951 244.906 61.3276 243.745 66.6943C242.583 72.0609 242.656 77.6214 243.959 82.9556C245.261 88.2898 247.759 93.2583 251.262 97.4859C254.766 101.714 259.185 105.09 264.185 107.359C269.185 109.629 274.635 110.733 280.124 110.587C285.613 110.442 290.997 109.051 295.87 106.52C295.87 106.52 295.1 106.23 294.79 106.13C286.92 109.985 277.901 110.787 269.475 108.382C261.048 105.977 253.811 100.536 249.161 93.1081C244.512 85.6804 242.778 76.7934 244.297 68.1628C245.815 59.5323 250.477 51.7702 257.382 46.3753C264.288 40.9803 272.947 38.3351 281.689 38.9503C290.43 39.5655 298.634 43.3975 304.716 49.7064C310.797 56.0154 314.326 64.3539 314.621 73.112C314.915 81.8701 311.954 90.4268 306.31 97.13L306.49 98.21C310.204 93.9477 312.868 88.875 314.27 83.3981C315.671 77.9212 315.77 72.1922 314.56 66.67L316.83 63.79C314.119 54.0667 307.77 45.7594 299.1 40.59L295.43 42C290.39 39.4488 284.819 38.1196 279.17 38.12Z" fill="#8C99B2"/>
<path opacity="0.25" d="M279.51 103.15H279.29C275.127 103.138 271.015 102.231 267.234 100.488C263.452 98.7456 260.091 96.2094 257.377 93.0519C254.664 89.8945 252.662 86.1897 251.508 82.1896C250.353 78.1895 250.074 73.9877 250.689 69.87C251.303 65.7523 252.797 61.8152 255.069 58.3263C257.34 54.8374 260.337 51.8785 263.854 49.6508C267.371 47.4231 271.327 45.9789 275.452 45.4162C279.577 44.8535 283.775 45.1857 287.76 46.39" stroke="#A2E2FF" stroke-width="2" stroke-miterlimit="10" stroke-linecap="round"/>
<path d="M279.25 45.13H279.46C283.268 45.13 287.039 45.8801 290.558 47.3375C294.076 48.7949 297.273 50.931 299.966 53.6239C302.659 56.3168 304.795 59.5137 306.253 63.0322C307.71 66.5506 308.46 70.3217 308.46 74.13C308.46 77.9383 307.71 81.7094 306.253 85.2278C304.795 88.7463 302.659 91.9432 299.966 94.6361C297.273 97.329 294.076 99.4651 290.558 100.923C287.039 102.38 283.268 103.13 279.46 103.13C276.593 103.133 273.742 102.708 271 101.87" stroke="#A2E2FF" stroke-width="2" stroke-miterlimit="10"/>
<path fill-rule="evenodd" clip-rule="evenodd" d="M281.23 77.8V66.17L281.16 66.02V65.87L281.08 65.8L281.01 65.65V65.58L280.93 65.43L280.86 65.35L280.78 65.28L280.71 65.13L280.64 65.05L280.56 64.98L280.42 64.83L280.34 64.76L280.27 64.69L280.12 64.61L280.04 64.54L279.9 64.47H279.82L279.68 64.39L279.53 64.31L279.45 64.24H279.3L279.15 64.17H278.79L278.64 64.09H278.34L278.19 64.17H277.75L277.67 64.24H277.52L277.38 64.31L277.3 64.39L277.16 64.47H277L276.93 64.54L276.78 64.61L276.71 64.69L276.64 64.76L276.49 64.83L276.42 64.98L276.34 65.05L276.27 65.13L276.19 65.2L276.12 65.35L276.04 65.43L275.97 65.58L275.9 65.65V65.8L275.82 65.87L275.75 66.02V66.24L275.67 66.39V77.8H275.6L275.53 77.87L275.45 77.95L275.37 78.02L275.3 78.09L275.23 78.17L275.15 78.25L275.08 78.32V78.47L275.01 78.54L274.93 78.61L274.86 78.69L274.79 78.76V78.83L274.71 78.91V79.06L274.64 79.13L274.56 79.21V79.28L274.49 79.43V79.5L274.41 79.58V79.8L274.34 79.88V80.32L274.27 80.39V80.76L274.34 80.98V81.21L274.41 81.35V81.58L274.49 81.73L274.56 81.87L274.64 82.09L274.71 82.25L274.79 82.39L274.93 82.54L275.01 82.69L275.15 82.91L275.23 82.99L275.37 83.14L275.53 83.28L275.67 83.43L275.82 83.5L275.97 83.65L276.12 83.72L276.34 83.88L276.49 83.95L276.64 84.02L276.86 84.1L277 84.17L277.23 84.24L277.45 84.32H277.6L277.82 84.39H279.08L279.3 84.32H279.53L279.75 84.24L279.9 84.17L280.12 84.1L280.27 84.02L280.49 83.95L280.64 83.88L280.78 83.72L281.01 83.65L281.16 83.5L281.31 83.43L281.45 83.28L281.6 83.14L281.67 82.99L281.82 82.91L281.97 82.69L282.05 82.54L282.12 82.39L282.27 82.25L282.34 82.09L282.41 81.87L282.49 81.73L282.56 81.58V81.35L282.64 81.21V80L282.56 79.93V79.7L282.49 79.63V79.5L282.41 79.43V79.28L282.34 79.21V79.13L282.27 79.06V78.91L282.19 78.83L282.12 78.76V78.69L282.05 78.61L281.97 78.54L281.9 78.47L281.82 78.32L281.75 78.25L281.67 78.17V78.09L281.6 78L281.53 77.93L281.45 77.85L281.38 77.78L281.23 77.8ZM287.82 67.8V66.91H286.82V65.8H287.82V64.91H289V65.8H290V66.91H289V67.8H287.82ZM286.82 81.65H290.01V82.76H286.82V81.65ZM286.82 76.1H290.01V77.2H286.82V76.1ZM286.82 73.87H290.01V75H286.82V73.87ZM286.82 71.65H290.01V72.76H286.82V71.65ZM279.11 78.83V78.76V78.69V72.32V72.24V72.17V72.09H279.04V72H279L278.92 71.92H278.85V71.8H278.7V71.73H278.26V71.8H278.11V71.87H278.04L278 72L277.93 72.07V72.14H277.85V72.22V72.29L277.78 72.37V78.74V78.81L277.85 78.88H277.7L277.63 78.96H277.55L277.48 79.04H277.41L277.33 79.11H277.26L277.19 79.18L277.11 79.26H277V79.33L276.93 79.41H276.86V79.48L276.78 79.55L276.71 79.63L276.64 79.7V79.77L276.56 79.85V79.93L276.49 80V80.15L276.42 80.22V81L276.49 81.08V81.3L276.56 81.37V81.45L276.64 81.53L276.71 81.6V81.67L276.78 81.75L276.86 81.82L276.93 81.89L277 82L277.08 82.07L277.16 82.14H277.23L277.3 82.22L277.38 82.3H277.45L277.6 82.37H277.67L277.75 82.44H277.82L277.97 82.52H278.34L278.49 82.59L278.56 82.52H279L279.07 82.44H279.22L279.29 82.37H279.37L279.44 82.3H279.52L279.67 82.22L279.74 82.14H279.81L279.89 82.07L280 82L280.07 81.92L280.15 81.85V81.78L280.22 81.7L280.3 81.63L280.37 81.56V81.48L280.45 81.4V81.33L280.52 81.18V81L280.59 80.93V80.26L280.52 80.19V80L280.45 79.93V79.86L280.37 79.78V79.7L280.3 79.63V79.56H280.22V79.5L280.15 79.43L280.07 79.36L280 79.28L279.93 79.21H279.85V79.13L279.78 79.06H279.71L279.6 79H279.53L279.45 78.92H279.38L279.3 78.84H279.15L279.11 78.83ZM278.45 83.14H278.01L277.86 83.06H277.63L277.48 82.99L277.34 82.91H277.26L277.12 82.84L276.96 82.76L276.89 82.69L276.74 82.61L276.67 82.54L276.6 82.47L276.45 82.39L276.38 82.32L276.3 82.25L276.23 82.09L276.15 82.02L276.08 81.95L276 81.8L275.93 81.73L275.86 81.58V81.51L275.78 81.35L275.71 81.21V81L275.63 80.86V80.34L275.71 80.26V80L275.78 79.93V79.8L275.86 79.65V79.58L275.93 79.5V79.43L276 79.36V79.28H276.08L276.15 79.21V79.13L276.23 79.06L276.3 78.99L276.38 78.91L276.45 78.83L276.52 78.76L276.6 78.69L276.67 78.61H276.74L276.82 78.54L276.89 78.47H277L277.08 78.39V66.39L277.16 66.32V66.24L277.23 66.17V66H277.3V65.92L277.38 65.85L277.45 65.78H277.52V65.7L277.6 65.63H277.67V65.56H277.82L277.9 65.48H278L278.08 65.41H278.89L278.96 65.48H279.11L279.18 65.56H279.26L279.33 65.63H279.41L279.48 65.7V65.78H279.56V65.85H279.63V65.92L279.71 66L279.78 66.08V66.22L279.85 66.3V66.44L279.93 66.52V78.39L280 78.47L280.08 78.54L280.15 78.61H280.23L280.3 78.69V78.76L280.38 78.83H280.45L280.52 78.91L280.6 78.99L280.67 79.06V79.13L280.74 79.21L280.82 79.28L280.89 79.36V79.43L280.97 79.5V79.58L281.04 79.65V79.8L281.12 79.88V80L281.19 80.08V81.08L281.12 81.16V81.3L281.04 81.46L280.97 81.53V81.68L280.89 81.75L280.82 81.9L280.74 81.97L280.67 82.04L280.6 82.2L280.52 82.27L280.38 82.34L280.3 82.42L280.23 82.49L280.08 82.56L280 82.64L279.86 82.71L279.78 82.79L279.64 82.86H279.49L279.41 82.94L279.26 83.01H279L278.92 83.09H278.48L278.45 83.14Z" fill="#8C99B2"/>
<path fill-rule="evenodd" clip-rule="evenodd" d="M156.25 51.66C155.34 50.7131 154.578 49.6343 153.99 48.46C153.439 47.1429 153.289 45.692 153.56 44.29C153.841 42.8794 154.455 41.5562 155.35 40.43C155.317 40.9248 155.383 41.4211 155.544 41.89C155.706 42.3588 155.959 42.7906 156.29 43.16C156.12 42.2097 156.165 41.2334 156.421 40.3026C156.677 39.3718 157.138 38.5099 157.77 37.78C159.06 36.3503 160.696 35.276 162.52 34.66C162.11 35.1667 161.834 35.7687 161.719 36.4103C161.603 37.0519 161.652 37.7122 161.86 38.33C162.295 39.5556 162.883 40.7214 163.61 41.8C164.348 42.8623 164.805 44.0938 164.94 45.38C165.337 44.7264 165.672 44.0367 165.94 43.32C166.206 42.597 166.262 41.8133 166.1 41.06C166.774 41.8604 167.22 42.8277 167.39 43.86C167.468 44.353 167.512 44.8509 167.52 45.35V45.68C167.52 46.18 167.52 46.68 167.43 47.17C167.315 48.3975 166.925 49.5834 166.29 50.64C165.478 51.8437 164.283 52.7384 162.9 53.18C162.177 53.3075 161.444 53.3611 160.71 53.34C161.353 53.2892 161.973 53.0792 162.515 52.7292C163.056 52.3791 163.502 51.8998 163.813 51.3345C164.123 50.7692 164.288 50.1356 164.293 49.4907C164.298 48.8458 164.142 48.2098 163.84 47.64C163.84 47.64 163.84 47.64 163.84 47.56C163.957 48.1701 163.927 48.7992 163.753 49.3956C163.58 49.9919 163.267 50.5384 162.84 50.99C162.998 50.4938 163.048 49.9696 162.988 49.4524C162.928 48.9351 162.758 48.4366 162.49 47.99C162.02 47.09 161.36 46.28 160.85 45.42C160.269 44.5651 160.033 43.5218 160.19 42.5C159.252 43.2144 158.591 44.2324 158.32 45.38C158.052 46.5342 158.189 47.7456 158.71 48.81C158.408 48.6043 158.154 48.3363 157.964 48.0241C157.774 47.7119 157.654 47.3628 157.61 47C157.191 47.4665 156.895 48.0295 156.747 48.6386C156.599 49.2478 156.605 49.8841 156.764 50.4905C156.922 51.0969 157.229 51.6546 157.656 52.1135C158.082 52.5724 158.617 52.9182 159.21 53.12L159.6 53.24C158.359 53.033 157.199 52.4861 156.25 51.66Z" fill="#F7931E"/>
</svg>

<svg id="a6a0d29b-4756-485e-80e1-1a55e6fefef3" data-name="1" xmlns="http://www.w3.org/2000/svg" viewBox="0 0 324 116.75"><defs><style>.ecb57f25-9930-4321-ae6c-c2481a13a82c{fill:#5e6581;opacity:0.2;}.a48b4267-c406-4e8f-a8ef-efb418851e3d,.ba46fb41-1535-4e72-869c-6130a9c703d9,.bc117a1f-6745-41b5-884c-45d05d61b523,.e2c51532-539f-4493-b246-09331747c3f5{fill:none;stroke-miterlimit:10;stroke-width:2px;}.bc117a1f-6745-41b5-884c-45d05d61b523{stroke:#f4a321;}.a48b4267-c406-4e8f-a8ef-efb418851e3d,.bc117a1f-6745-41b5-884c-45d05d61b523{stroke-linecap:round;opacity:0.25;}.ba46fb41-1535-4e72-869c-6130a9c703d9{stroke:#fff;}.a48b4267-c406-4e8f-a8ef-efb418851e3d,.e2c51532-539f-4493-b246-09331747c3f5{stroke:#9ed7f5;}.a9b24fe4-7800-4a97-ae11-6ad60437fd86,.bc1833ee-2cf7-4452-a41b-807b2f26d8cc{fill:#606580;}.a9b24fe4-7800-4a97-ae11-6ad60437fd86,.b58dea9f-db07-4dab-b6c0-2a017716678d{fill-rule:evenodd;}.b58dea9f-db07-4dab-b6c0-2a017716678d{fill:#f4a321;}</style></defs><title>Prew</title><path class="ecb57f25-9930-4321-ae6c-c2481a13a82c" d="M160.25,8.67A36.24,36.24,0,1,0,177,77.07l-1.07-.39a35.46,35.46,0,1,1,11.51-9.05c.08.42.18,1.08.18,1.08a36.21,36.21,0,0,0,8.91-23.81,35.83,35.83,0,0,0-.84-7.73s1.23-1.54,2.27-2.88a39.29,39.29,0,0,0-17.72-23.2l-3.67,1.45A36,36,0,0,0,160.25,8.67Z"/><path class="bc117a1f-6745-41b5-884c-45d05d61b523" d="M160.84,73.7h-.21a29,29,0,1,1,8.46-56.76"/><path class="ba46fb41-1535-4e72-869c-6130a9c703d9" d="M160.25,15.68h.21A29,29,0,1,1,152,72.44"/><path class="ecb57f25-9930-4321-ae6c-c2481a13a82c" d="M41.33,38.12A36.24,36.24,0,1,0,58,106.52L57,106.13a35.46,35.46,0,1,1,11.51-9l.18,1.08a36.21,36.21,0,0,0,8.07-31.54L79,63.74a39.3,39.3,0,0,0-17.73-23.2L57.59,42A36,36,0,0,0,41.33,38.12Z"/><path class="a48b4267-c406-4e8f-a8ef-efb418851e3d" d="M41.92,103.15H41.7a29,29,0,1,1,8.47-56.76"/><path class="e2c51532-539f-4493-b246-09331747c3f5" d="M41.32,45.13h.22a29,29,0,1,1-8.47,56.76"/><path class="bc1833ee-2cf7-4452-a41b-807b2f26d8cc" d="M40,83.61l-1.49-.75c-.25-.12-.5-.24-.75-.38-2.78-1.63-3.8-4.38-2.86-7.74a15.76,15.76,0,0,1,1.74-3.68l.06-.12a25.73,25.73,0,0,0,2.66-5.54c.08-.28.15-.57.23-.87l.33-1.22.72.46a1.49,1.49,0,0,1,.29.2l.53.53a38.42,38.42,0,0,1,4.71,5.28,12.4,12.4,0,0,1,2.35,5.85c.32,3.07-.58,5.28-2.77,6.76a7.15,7.15,0,0,1-1.23.63l-.51.22-.58.28-.44-1,.23-.28a4.82,4.82,0,0,1,.36-.43,6.61,6.61,0,0,0,.64-.83,6.49,6.49,0,0,0,0-7.1A8.59,8.59,0,0,0,43,72.2a11.79,11.79,0,0,1-1.54,5.16l-.81,1.48-.34-1.65a5.07,5.07,0,0,0-.65-1.76c-.35.83-.68,1.66-1,2.49a3.29,3.29,0,0,0,.74,3.77,1.24,1.24,0,0,1,.36.64Zm1.57-14.32,1.16,1a10.91,10.91,0,0,1,2.54,3,7.74,7.74,0,0,1,.4,7.67c1.34-1.19,1.85-2.84,1.61-5.13a11.27,11.27,0,0,0-2.13-5.28,38,38,0,0,0-4.51-5c0,.11-.06.22-.1.33a26.72,26.72,0,0,1-2.76,5.81l-.07.12a14.3,14.3,0,0,0-1.61,3.38,5.28,5.28,0,0,0,1.17,5.51,4.67,4.67,0,0,1,.2-3.11c.35-.89.71-1.77,1.07-2.66l.39-.94.65-.25.33.23A4.53,4.53,0,0,1,41,75.37a9.83,9.83,0,0,0,.69-4.58ZM40,74.58v0Z"/><path class="ecb57f25-9930-4321-ae6c-c2481a13a82c" d="M279.17,38.12a36.24,36.24,0,1,0,16.7,68.4s-.77-.29-1.08-.39a35.44,35.44,0,1,1,11.52-9l.18,1.08a36.21,36.21,0,0,0,8.07-31.54l2.27-2.88a39.3,39.3,0,0,0-17.73-23.2L295.43,42A36,36,0,0,0,279.17,38.12Z"/><path class="a48b4267-c406-4e8f-a8ef-efb418851e3d" d="M279.51,103.15h-.22a29,29,0,1,1,8.47-56.76"/><path class="e2c51532-539f-4493-b246-09331747c3f5" d="M279.25,45.13h.21a29,29,0,1,1,0,58,28.85,28.85,0,0,1-8.46-1.26"/><path class="a9b24fe4-7800-4a97-ae11-6ad60437fd86" d="M281.23,77.8V66.17l-.07-.15v-.15l-.08-.07-.07-.15v-.07l-.08-.15-.07-.08-.08-.07-.07-.15-.07-.08-.08-.07-.14-.15-.08-.07-.07-.07-.15-.08-.08-.07-.14-.07h-.08l-.14-.08-.15-.08-.08-.07h-.15l-.15-.07h-.36l-.15-.08h-.3l-.15.08h-.44l-.08.07h-.15l-.14.07-.08.08-.14.08H277l-.07.07-.15.07-.07.08-.07.07-.15.07-.07.15-.08.07-.07.08-.08.07-.07.15-.08.08-.07.15-.07.07v.15l-.08.07-.07.15v.22l-.08.15V77.8h-.07l-.07.07-.08.08-.08.07-.07.07-.07.08-.08.08-.07.07v.15l-.07.07-.08.07-.07.08-.07.07v.07l-.08.08v.15l-.07.07-.08.08v.07l-.07.15v.07l-.08.08v.22l-.07.08v.44l-.07.07v.37l.07.22v.23l.07.14v.23l.08.15.07.14.08.22.07.16.08.14.14.15.08.15.14.22.08.08.14.15.16.14.14.15.15.07.15.15.15.07.22.16.15.07.15.07.22.08.14.07.23.07.22.08h.15l.22.07h1.26l.22-.07h.23l.22-.08.15-.07.22-.07.15-.08.22-.07.15-.07.14-.16.23-.07.15-.15.15-.07.14-.15.15-.14.07-.15.15-.08.15-.22.08-.15.07-.15.15-.14.07-.16.07-.22.08-.14.07-.15v-.23l.08-.14V80l-.08-.07v-.23l-.07-.07V79.5l-.08-.07v-.15l-.07-.07v-.08l-.07-.07v-.15l-.08-.08-.07-.07v-.07l-.07-.08-.08-.07-.07-.07-.08-.15-.07-.07-.08-.08v-.08L281.6,78l-.07-.07-.08-.08-.07-.07Zm6.59-10v-.89h-1V65.8h1v-.89H289v.89h1v1.11h-1v.89Zm-1,13.85h3.19v1.11h-3.19Zm0-5.55h3.19v1.1h-3.19Zm0-2.23h3.19V75h-3.19Zm0-2.22h3.19v1.11h-3.19Zm-7.71,7.18v-.07h0v-.07h0V72.32h0v-.08h0v-.07h0v-.08h-.07V72H279V72h0l-.08-.08h-.07V71.8h-.15v-.07h-.44v.07h-.15v.07h-.07L278,72h0l-.07.07h0v.07h-.08v.08h0v.07h0l-.07.08h0v6.37h0v.07h0l.07.07h-.15l-.07.08h-.08l-.07.08h-.07l-.08.07h-.07l-.07.07-.08.08H277v.07l-.07.08h-.07v.07l-.08.07-.07.08h0l-.07.07v.07l-.08.08v.08l-.07.07v.15l-.07.07V81l.07.08v.22l.07.07v.08l.08.08.07.07v.07l.07.08.08.07.07.07L277,82l.08.07.08.07h.07l.07.08.08.08h.07l.15.07h.07l.08.07h.07l.15.08h.37l.15.07.07-.07H279l.07-.08h.15l.07-.07h.08l.07-.07h.08l.15-.08.07-.08h.07l.08-.07L280,82l.07-.08.08-.07v-.07l.07-.08.08-.07.07-.07v-.08l.08-.08v-.07l.07-.15V81l.07-.07v-.67l-.07-.07V80l-.07-.07v-.07l-.08-.08v-.08l-.07-.07v-.07h-.08V79.5l-.07-.07-.08-.07h0l-.07-.08-.07-.07h-.08v-.08l-.07-.07h-.07L279.6,79h-.07l-.08-.08h-.07l-.08-.08h-.15Zm-.66,4.31h-.44l-.15-.08h-.23l-.15-.07-.14-.08h-.08l-.14-.07-.16-.08-.07-.07-.15-.08-.07-.07-.07-.07-.15-.08-.07-.07-.08-.07-.07-.16-.08-.07-.07-.07L276,81.8l-.07-.07-.07-.15v-.07l-.08-.16-.07-.14V81l-.08-.14v-.52l.08-.08V80l.07-.07V79.8l.08-.15v-.07l.07-.08v-.07l.07-.07v-.08h.08l.07-.07v-.08l.08-.07.07-.07.08-.08.07-.08h0l.07-.07.08-.07.07-.08h.07l.08-.07.07-.07H277l.08-.08v-12l.08-.07h0v-.08l.07-.07V66h.07v-.08l.08-.07h0l.07-.07h.07v-.08l.08-.07h.07v-.07h.15l.08-.08H278l.08-.07h.81l.07.07h.15l.07.08h.08l.07.07h.08l.07.07v.08h.08v.07h.07v.07l.08.08h0l.07.08v.14l.07.08h0v.14l.08.08V78.39l.07.08H280l.08.07.07.07h.08l.07.08v.07l.08.07h.07l.07.08.08.08.07.07v.07l.07.08.08.07h0l.07.08v.07l.08.07v.08l.07.07v.15l.08.08V80l.07.08v1l-.07.08v.14l-.08.16-.07.07v.15l-.08.07-.07.15-.08.07-.07.07-.07.16-.08.07-.14.07-.08.08-.07.07-.15.07-.08.08-.14.07-.08.08-.14.07h-.15l-.08.08-.15.07H279l-.08.08h-.44Z"/><path class="b58dea9f-db07-4dab-b6c0-2a017716678d" d="M156.25,51.66a13.06,13.06,0,0,1-2.26-3.2,7.24,7.24,0,0,1-.43-4.17,9.05,9.05,0,0,1,1.79-3.86,3.72,3.72,0,0,0,.94,2.73,6.48,6.48,0,0,1,1.48-5.38,11.24,11.24,0,0,1,4.75-3.12,3.87,3.87,0,0,0-.66,3.67,15.49,15.49,0,0,0,1.75,3.47,7.68,7.68,0,0,1,1.33,3.58,12.14,12.14,0,0,0,1-2.06,4.07,4.07,0,0,0,.16-2.26,5.82,5.82,0,0,1,1.29,2.8,10.57,10.57,0,0,1,.13,1.49v.33c0,.5,0,1-.09,1.49a8.23,8.23,0,0,1-1.14,3.47,6.46,6.46,0,0,1-3.39,2.54,10.82,10.82,0,0,1-2.19.16,3.89,3.89,0,0,0,3.13-5.7s0,0,0-.08a3.92,3.92,0,0,1-1,3.43,3.67,3.67,0,0,0-.35-3c-.47-.9-1.13-1.71-1.64-2.57a4.09,4.09,0,0,1-.66-2.92,5.09,5.09,0,0,0-1.87,2.88,5.15,5.15,0,0,0,.39,3.43A2.56,2.56,0,0,1,157.61,47a3.79,3.79,0,0,0,1.6,6.12l.39.12A6.81,6.81,0,0,1,156.25,51.66Z"/></svg>
